X:1
T:Honey-Moon -- Reel
R:reel
B:Ryan's Mammoth Collection
Z:Contributed by Ray Davies,  ray:davies99.freeserve.co.uk
M:C|
L:1/8
K:G
vdc|\
BGAF G2GA |  Bdef  gfed | BGG2 dGBd | (3efg.d.B A2dc |
BGAF G2GA | (Bd)ef gfga | bgaf gfed | (3efg.d.B A2  |]
vAc|\
Beef edBA |  Bdef  gfed | BGG2 dGBd | (3efg.d.B A2Ac |
Beef edBA | (Bd)ef gfga | bgaf gfed | (3efg.d.B A2 "_D.C." |]
